!! 00000] TT[00
!! NN
!!!OTL: Diu diu tong
!!!ARE: Asia, China,ÿTaiwan
!! Ethnic Group: Han
!! IV, 628
!!!SCT: C0447
!!!YEM: Copyright 1995, estate of Helmut Schaffrath.
**kern
*ICvox
*Ivox
*M2/4
*k[b-e-]
*B-:
{4ccc
4ddd
=1
8ccc
8ddd
8ccc
8bb-
=2
8ccc
16ddd
16ddd
8ccc
8bb-
=3
8ccc
8r}
{8bb-
8gg
=4
8ff
8ff
8gg
8bb-
=5
2ff}
=6
{4gg
4ccc
=7
8gg
8bb-
8bb-
8gg
=8
8.ccc
16bb-
8.ccc
16bb-
=9
8gg
8bb-}
{8bb-
8gg
=10
8ff
16ff
16ff
8ff
8ff
=11
8gg
8bb-
8gg
8ff
=12
4.cc
8gg
=13
2ff}
==
!!!AGN: Xiaodiao, Erge, Yilan diao
!! Glissandi.   Phrasierung ueberpruefen!!
!!!ONB: ESAC (Essen Associative Code) Database: CHINA
!!!AMT: simple duple
!!!AIN: vox
!!!EED: Helmut Schaffrath
!!!EEV: 1.0
*-
